X:297
T:Tilley Fowler in the Glen. JBut.296
B:John Buttrey MS, poss. Lincolnshire, early 19thC
S:https://buttreymilitarysocialtunes1800.wordpress.com/
Z:Village Music Project Quinton Cumbes 2019
M:C
L:1/8
Q:1/4=120
K:Em
E>AA>B GA B2|d>AA>B G>AG>E|E>AA>B G>AB>d|d>AA>B G>AG>E:|
|:g>eeg d>edB|g>eeg a>geg|g>efd e>dBG|A>cB>A G>AG>E|
g>eeg d>edB|g>eeg a>gab|f>ef>d e>dBA|A>cBA G>AGF:|

